src/images/7.svg

<svg fill="none" height="38" viewBox="0 0 29 38" width="29" xmlns="http://www.w3.org/2000/svg"><path d="m25 .683415-16.66667-.016667c-1.83333 0-3.33333 1.500002-3.33333 3.333332v5h3.33333v-1.66666h16.66667v23.33328h-16.66667v-1.6666h-3.33333v5c0 1.8333 1.5 3.3333 3.33333 3.3333h16.66667c1.8333 0 3.3333-1.5 3.3333-3.3333v-30.00002c0-1.83333-1.5-3.316665-3.3333-3.316665zm-13.3333 23.316685h3.3333v-11.6667h-11.66667v3.3333h5.98334l-9.31667 9.3167 2.35 2.35 9.3167-9.3167z" fill="#fff"/></svg>

<svg fill="none" height="38" width="29" xmlns="http://www.w3.org/2000/svg"><path d="M25 .683L8.333.667A3.343 3.343 0 0 0 5 4v5h3.333V7.333H25v23.334H8.333V29H5v5c0 1.833 1.5 3.333 3.333 3.333H25c1.833 0 3.333-1.5 3.333-3.333V4c0-1.833-1.5-3.317-3.333-3.317zM11.667 24H15V12.333H3.333v3.334h5.984L0 24.983l2.35 2.35 9.317-9.316z" fill="#fff"/></svg>
